docs/images/experience/q.svg

<svg height="160" viewBox="0 0 170 160" width="170" xmlns="http://www.w3.org/2000/svg" xmlns:xlink="http://www.w3.org/1999/xlink"><linearGradient id="a" x1="45.541425%" x2="52.833934%" y1="70.313026%" y2="37.110056%"><stop offset="0" stop-color="#315629"/><stop offset=".01" stop-color="#315629" stop-opacity=".98"/><stop offset=".18" stop-color="#315629" stop-opacity=".63"/><stop offset=".35" stop-color="#315629" stop-opacity=".35"/><stop offset=".54" stop-color="#315629" stop-opacity=".15"/><stop offset=".75" stop-color="#315629" stop-opacity=".04"/><stop offset="1" stop-color="#315629" stop-opacity="0"/></linearGradient><g fill="none" fill-rule="evenodd"><g fill-rule="nonzero" transform="translate(20 20)"><path d="m90.1985352 56.8819199c7.317642-9.179407 9.6138804-21.4722321 5.446633-33.339828-6.4412999-18.32368623-26.5879258-27.98193838-44.9134609-21.54988263s-27.9893337 26.59162343-21.546185 44.91530963c6.4431487 18.3236863 26.5860769 27.9911826 44.9079144 21.5480339 6.9552727-3.0246747 15.5985209-2.1021119 21.7070326 2.5180971l7.0014937-8.0849036c-5.3320064-4.4686056-12.6034278-6.0068264-12.6034278-6.0068264zm-19.6308043 1.5382208c-12.7883097 4.4981868-26.8523074-2.2518666-31.3504942-15.0383275-4.4981867-12.7864609 2.2555643-26.8560051 15.043874-31.352343 12.7883098-4.49633794 26.857854 2.2518666 31.3467966 15.0420251 4.4889426 12.7901586-2.2500178 26.8486099-15.0401764 31.3486454z" fill="#5db407"/><path d="m71.7916519 57.9505396c-.0905924.0388253-.1848824.073953-.2773235.1109294l-.0831971.0332788c6.1880111-2.288843 13.0101686-2.5883524 18.7674039-1.2128279-.0573136-.03143 0 0 0 0 2.9847865-3.7345856 5.1583885-8.0503062 6.3821375-12.6718339l-12.1338264 1.8894972c-2.666003 5.3172154-6.742658 9.3439522-12.6551944 11.8509564z" fill="url(#a)"/><g fill="#464646"><path d="m30.9825784 87.1064808h3.2188011v11.3702624c0 2.8490368.1534523 4.8161838.4622058 5.8848038.4234927 1.485189 1.35785 2.773122 2.6382706 3.636635 1.2941762.88004 2.8397924 1.329304 4.6331509 1.329304 1.7933584 0 3.3278816-.436322 4.5739884-1.294176 1.2170011-.821169 2.1273021-2.022766 2.5883524-3.416625.3241604-.961388.4862405-3.006803.4862405-6.1362442v-11.3702624h3.28351v11.9655835c0 3.4511361-.4024272 6.0487331-1.2072816 7.7927891-.768682 1.704205-2.036028 3.135287-3.6347863 4.104388-1.617104.986039-3.6446467 1.479058-6.0826282 1.479058-2.4379814 0-4.4716869-.493019-6.1011164-1.479058-1.6156807-.971231-2.8921668-2.417528-3.6551233-4.141364-.8048544-1.76994-1.2072815-4.432245-1.2072815-7.986916z"/><path d="m126.437318 103.472263 2.727014 1.429141c-.898528 1.757614-1.933253 3.175045-3.104174 4.252293-1.145629 1.066434-2.485729 1.902506-3.947238 2.462632-1.591459.583624-3.276572.870012-4.971485.844912-4.10069 0-7.305317-1.34471-9.61388-4.034132-2.308564-2.689421-3.464079-5.725805-3.466544-9.1091513-.031567-3.095764 1.007561-6.107339 2.941478-8.5249236 2.479888-3.1738131 5.800374-4.7601033 9.961459-4.7588715 4.283107 0 7.704046 1.6245 10.262817 4.8734986 1.819242 2.2962383 2.743654 5.1594491 2.773235 8.5896323h-22.614805c.059163 2.9211405.990969 5.3141345 2.795421 7.1789805 1.804451 1.864846 4.031667 2.797886 6.681647 2.799118 1.27435-.000263 2.53864-.225582 3.734622-.665576 1.126979-.396865 2.172507-.995116 3.085686-1.765626.847994-.73953 1.766243-1.930172 2.754747-3.571927zm0-6.7703901c-.433857-1.7255683-1.062457-3.1029415-1.8858-4.1321197-.882094-1.0732044-2.001806-1.9264391-3.270568-2.4922136-1.338216-.6293019-2.799383-.9538653-4.278177-.9503243-2.465097 0-4.585697.7944068-6.3618 2.3831622-1.294176 1.1512006-2.27282 2.881699-2.935931 5.1914954z"/><path d="m92.0029866 99.2920742c0-.0961388 0-.1848824 0-.2865676.0061168-5.4422685 4.4175035-9.8520008 9.8597734-9.8560763.295812 0 .78575.0184883 1.076016.0388253v-3.1171158c-.317998-.0184882-.75432-.0369786-1.076016-.0369786-3.4414948-.00196-6.7427069 1.3637936-9.1769054 3.796605-2.4341984 2.4328114-3.8018327 5.7332446-3.8018327 9.1747404v.4732987 12.9805877h3.1189647z"/><path d="m70.7803456 86.0341625c3.8665055 0 7.0711323 1.4007925 9.6138804 4.2023759 2.3122615 2.5550736 3.4683922 5.5803645 3.4683922 9.0758728 0 3.4955088-1.219607 6.5657878-3.658821 9.2108368-2.4441442 2.622864-5.5871436 3.936145-9.4289981 3.939842-3.8603427 0-7.0113537-1.31328-9.4530328-3.939842-2.4416791-2.626561-3.6643675-5.694375-3.6680651-9.2034415 0-3.4794852 1.1561307-6.4992296 3.4683922-9.0592334 2.5501434-2.8188391 5.7695608-4.2276423 9.6582522-4.2264106zm-.0147906 3.1632236c-2.6881889 0-4.9986015.993548-6.931238 2.9804166s-2.8983384 4.3903387-2.8972315 7.2104103c-.0086994 1.775819.4476933 3.522987 1.323883 5.067624.8260141 1.522931 2.0621254 2.784021 3.5682287 3.640333 3.0672424 1.713345 6.8036244 1.713345 9.8708668 0 1.5069066-.855881 2.7437219-2.117035 3.5700775-3.640333.8748554-1.548365 1.3299077-3.298468 1.3202162-5.0768681 0-2.8139089-.9701723-5.217379-2.9102041-7.2104103-1.9400318-1.9930314-4.244898-2.9833843-6.9145986-2.9711725z"/><path d="m26.208917 99.3124112c0-3.4955083-1.156747-6.5207992-3.470241-9.0758728-2.5439807-2.8003508-5.7486075-4.2011425-9.6138804-4.2023759-3.86527298-.0012317-7.08407408 1.4075715-9.65640337 4.2264106-2.31102894 2.5612363-3.46715968 5.5785157-3.46839223 9.0518381 0 3.5078338 1.22268838 6.5756478 3.66806514 9.2034418 2.44537675 2.627794 5.59638768 3.941075 9.45303276 3.939842 3.8381569 0 6.9811562-1.313281 9.4289981-3.939842.1700917-.184882.334637-.369765.4954846-.554647v12.610823h3.1633364v-21.0155731.0129417c0-.0850458 0-.1700917 0-.2569864zm-4.5961743 5.1434258c-.8263997 1.523742-2.0631626 2.785483-3.5700776 3.642182-1.5016077.860406-3.2058203 1.304011-4.9363578 1.284932-1.7298679.018391-3.43330706-.42518-4.93450896-1.284932-1.50734142-.856145-2.74424025-2.118025-3.57007751-3.642182-.87550543-1.547347-1.33002017-3.297197-1.31821091-5.0750193 0-2.8139089.96508569-5.217379 2.89525706-7.2104103 1.93017137-1.9930314 4.24058402-2.9864657 6.93123802-2.9803314 2.6733983 0 4.9788807.9934628 6.9164474 2.9803314s2.9075825 4.3903387 2.9101615 7.2104103c.0082842 1.7781073-.4480377 3.5275533-1.3238712 5.0750193z"/></g></g><path d="m0 0h170v160h-170z"/></g></svg>

<?xml version="1.0" encoding="UTF-8"?>
<svg width="170px" height="160px" viewBox="0 0 170 160" version="1.1" xmlns="http://www.w3.org/2000/svg" xmlns:xlink="http://www.w3.org/1999/xlink">
    <title>q</title>
    <defs>
        <linearGradient x1="45.5414247%" y1="70.3130259%" x2="52.8339337%" y2="37.1100559%" id="linearGradient-1">
            <stop stop-color="#315629" offset="0%"></stop>
            <stop stop-color="#315629" stop-opacity="0.98" offset="1%"></stop>
            <stop stop-color="#315629" stop-opacity="0.63" offset="18%"></stop>
            <stop stop-color="#315629" stop-opacity="0.35" offset="35%"></stop>
            <stop stop-color="#315629" stop-opacity="0.15" offset="54%"></stop>
            <stop stop-color="#315629" stop-opacity="0.04" offset="75%"></stop>
            <stop stop-color="#315629" stop-opacity="0" offset="100%"></stop>
        </linearGradient>
    </defs>
    <g id="Page-1" stroke="none" stroke-width="1" fill="none" fill-rule="evenodd">
        <g id="q">
            <g id="quore" transform="translate(20.000000, 20.000000)" fill-rule="nonzero">
                <path d="M90.1985352,56.8819199 C97.5161772,47.7025129 99.8124156,35.4096878 95.6451682,23.5420919 C89.2038683,5.21840567 69.0572424,-4.43984648 50.7317073,1.99220927 C32.4061722,8.42426502 22.7423736,28.5838327 29.1855223,46.9075189 C35.628671,65.2312052 55.7715992,74.8987015 74.0934367,68.4555528 L74.0934367,68.4555528 C81.0487094,65.4308781 89.6919576,66.3534409 95.8004693,70.9736499 L102.801963,62.8887463 C97.4699566,58.4201407 90.1985352,56.8819199 90.1985352,56.8819199 Z M70.5677309,58.4201407 C57.7794212,62.9183275 43.7154235,56.1682741 39.2172367,43.3818132 C34.71905,30.5953523 41.472801,16.5258081 54.2611107,12.0294702 C67.0494205,7.53313226 81.1189647,14.2813368 85.6079073,27.0714953 C90.0968499,39.8616539 83.3578895,53.9201052 70.5677309,58.4201407 Z" id="Shape" fill="#5DB407"></path>
                <path d="M71.7916519,57.9505396 C71.7010595,57.9893649 71.6067695,58.0244926 71.5143284,58.061469 L71.4311313,58.0947478 C77.6191424,55.8059048 84.4412999,55.5063954 90.1985352,56.8819199 C90.1412216,56.8504899 90.1985352,56.8819199 90.1985352,56.8819199 L90.1985352,56.8819199 C93.1833217,53.1473343 95.3569237,48.8316137 96.5806727,44.210086 L84.4468463,46.0995832 C81.7808433,51.4167986 77.7041883,55.4435354 71.7916519,57.9505396 Z" id="Path" fill="url(#linearGradient-1)"></path>
                <path d="M30.9825784,87.1064808 L34.2013795,87.1064808 L34.2013795,98.4767432 C34.2013795,101.32578 34.3548318,103.292927 34.6635853,104.361547 C35.087078,105.846736 36.0214353,107.134669 37.3018559,107.998182 C38.5960321,108.878222 40.1416483,109.327486 41.9350068,109.327486 C43.7283652,109.327486 45.2628884,108.891164 46.5089952,108.03331 C47.7259963,107.212141 48.6362973,106.010544 49.0973476,104.616685 C49.421508,103.655297 49.5835881,101.609882 49.5835881,98.4804408 L49.5835881,87.1101784 L52.8670981,87.1101784 L52.8670981,99.0757619 C52.8670981,102.526898 52.4646709,105.124495 51.6598165,106.868551 C50.8911345,108.572756 49.6237885,110.003838 48.0250302,110.972939 C46.4079262,111.958978 44.3803835,112.451997 41.942402,112.451997 C39.5044206,112.451997 37.4707151,111.958978 35.8412856,110.972939 C34.2256049,110.001708 32.9491188,108.555411 32.1861623,106.831575 C31.3813079,105.061635 30.9788808,102.39933 30.9788808,98.844659 L30.9825784,87.1064808 Z" id="Path" fill="#464646"></path>
                <path d="M126.437318,103.472263 L129.164332,104.901404 C128.265804,106.659018 127.231079,108.076449 126.060158,109.153697 C124.914529,110.220131 123.574429,111.056203 122.11292,111.616329 C120.521461,112.199953 118.836348,112.486341 117.141435,112.461241 C113.040745,112.461241 109.836118,111.116531 107.527555,108.427109 C105.218991,105.737688 104.063476,102.701304 104.061011,99.3179577 C104.029444,96.2221937 105.068572,93.2106187 107.002489,90.7930341 C109.482377,87.619221 112.802863,86.0329308 116.963948,86.0341626 C121.247055,86.0341626 124.667994,87.6586626 127.226765,90.9076612 C129.046007,93.2038995 129.970419,96.0671103 130,99.4972935 L107.385195,99.4972935 C107.444358,102.418434 108.376164,104.811428 110.180616,106.676274 C111.985067,108.54112 114.212283,109.47416 116.862263,109.475392 C118.136613,109.475129 119.400903,109.24981 120.596885,108.809816 C121.723864,108.412951 122.769392,107.8147 123.682571,107.04419 C124.530565,106.30466 125.448814,105.114018 126.437318,103.472263 Z M126.437318,96.7018729 C126.003461,94.9763046 125.374861,93.5989314 124.551518,92.5697532 C123.669424,91.4965488 122.549712,90.6433141 121.28095,90.0775396 C119.942734,89.4482377 118.481567,89.1236743 117.002773,89.1272153 C114.537676,89.1272153 112.417076,89.9216221 110.640973,91.5103775 C109.346797,92.6615781 108.368153,94.3920765 107.705042,96.7018729 L126.437318,96.7018729 Z" id="Shape" fill="#464646"></path>
                <path d="M92.0029866,99.2920742 L92.0029866,99.2920742 C92.0029866,99.1959354 92.0029866,99.1071918 92.0029866,99.0055066 C92.0091034,93.5632381 96.4204901,89.1535058 101.86276,89.1494303 C102.158572,89.1494303 102.64851,89.1679186 102.938776,89.1882556 L102.938776,86.0711398 C102.620778,86.0526516 102.184456,86.0341612 101.86276,86.0341612 C98.4212652,86.0322012 95.1200531,87.3979548 92.6858546,89.8307662 C90.2516562,92.2635776 88.8840219,95.5640108 88.8840219,99.0055066 C88.8840219,99.1663542 88.8840219,99.3235042 88.8840219,99.4788053 L88.8840219,99.4788053 L88.8840219,112.459393 L92.0029866,112.459393 L92.0029866,99.2920742 Z" id="Path" fill="#464646"></path>
                <path d="M70.7803456,86.0341625 C74.6468511,86.0341625 77.8514779,87.434955 80.394226,90.2365384 C82.7064875,92.791612 83.8626182,95.8169029 83.8626182,99.3124112 C83.8626182,102.80792 82.6430112,105.878199 80.2037972,108.523248 C77.759653,111.146112 74.6166536,112.459393 70.7747991,112.46309 C66.9144564,112.46309 63.7634454,111.14981 61.3217663,108.523248 C58.8800872,105.896687 57.6573988,102.828873 57.6537012,99.3198065 C57.6537012,95.8403213 58.8098319,92.8205769 61.1220934,90.2605731 C63.6722368,87.441734 66.8916542,86.0329308 70.7803456,86.0341625 Z M70.765555,89.1973861 C68.0773661,89.1973861 65.7669535,90.1909341 63.834317,92.1778027 C61.9016805,94.1646713 60.9359786,96.5681414 60.9370855,99.388213 C60.9283861,101.164032 61.3847788,102.9112 62.2609685,104.455837 C63.0869826,105.978768 64.3230939,107.239858 65.8291972,108.09617 C68.8964396,109.809515 72.6328216,109.809515 75.700064,108.09617 C77.2069706,107.240289 78.4437859,105.979135 79.2701415,104.455837 C80.1449969,102.907472 80.6000492,101.157369 80.5903577,99.3789689 C80.5903577,96.56506 79.6201854,94.1615899 77.6801536,92.1685586 C75.7401218,90.1755272 73.4352556,89.1851743 70.765555,89.1973861 Z" id="Shape" fill="#464646"></path>
                <path d="M26.208917,99.3124112 C26.208917,95.8169029 25.05217,92.791612 22.738676,90.2365384 C20.1946953,87.4361876 16.9900685,86.0353959 13.1247956,86.0341625 C9.25952262,86.0329308 6.04072152,87.441734 3.46839223,90.2605731 C1.15736329,92.8218094 0.00123254877,95.8390888 -2.62733572e-15,99.3124112 C-2.62733572e-15,102.820245 1.22268838,105.888059 3.66806514,108.515853 C6.11344189,111.143647 9.26445282,112.456928 13.1210979,112.455695 C16.9592548,112.455695 20.1022541,111.142414 22.550096,108.515853 C22.7201877,108.330971 22.884733,108.146088 23.0455806,107.961206 L23.0455806,120.572029 L26.208917,120.572029 L26.208917,99.5564559 L26.208917,99.5693976 C26.208917,99.4843518 26.208917,99.3993059 26.208917,99.3124112 Z M21.6127427,104.455837 C20.786343,105.979579 19.5495801,107.24132 18.0426651,108.098019 C16.5410574,108.958425 14.8368448,109.40203 13.1063073,109.382951 C11.3764394,109.401342 9.67300024,108.957771 8.17179834,108.098019 C6.66445692,107.241874 5.42755809,105.979994 4.60172083,104.455837 C3.7262154,102.90849 3.27170066,101.15864 3.28350992,99.3808177 C3.28350992,96.5669088 4.24859561,94.1634387 6.17876698,92.1704074 C8.10893835,90.177376 10.419351,89.1839417 13.110005,89.190076 C15.7834033,89.190076 18.0888857,90.1835388 20.0264524,92.1704074 C21.9640191,94.157276 22.9340349,96.5607461 22.9366139,99.3808177 C22.9448981,101.158925 22.4885762,102.908371 21.6127427,104.455837 Z" id="Shape" fill="#464646"></path>
            </g>
            <rect id="Rectangle" x="0" y="0" width="170" height="160"></rect>
        </g>
    </g>
</svg>
